public/flame-icon.svg

<svg xmlns="http://www.w3.org/2000/svg" xmlns:xlink="http://www.w3.org/1999/xlink" viewBox="0 0 64 64" preserveAspectRatio="xMidYMid meet" version="1.0"><defs><clipPath id="75d46e1e6f"><path d="M 126.144531 115.199219 L 240 115.199219 L 240 267 L 126.144531 267 Z M 126.144531 115.199219 " clip-rule="nonzero"/></clipPath></defs><g clip-path="url(#75d46e1e6f)"><path fill="#545454" d="M 183.730469 266.652344 C 168.125 266.652344 129.554688 264.214844 126.140625 219.800781 C 126.140625 219.800781 136.128906 237.496094 136.144531 235.417969 C 136.191406 228.660156 126.140625 203.9375 151.273438 187.101562 C 182.03125 166.496094 172.75 141.222656 165.425781 140.734375 C 165.425781 140.734375 185.109375 138.742188 186.902344 164.84375 C 187.878906 179.046875 199.835938 138.050781 192.761719 115.355469 C 192.761719 115.355469 228.691406 134.390625 224.238281 181.242188 C 224.238281 181.242188 229.789062 170.628906 239.125 176.300781 C 239.125 176.300781 233.265625 178.316406 235.222656 193.933594 C 237.171875 209.550781 245.710938 266.652344 183.730469 266.652344 " fill-opacity="1" fill-rule="nonzero"/></g><path fill="#ffffff" d="M 179.09375 265.03125 C 169.007812 264.570312 149.808594 262.347656 149.808594 237.214844 C 149.808594 212.078125 174.945312 208.660156 174.945312 185.480469 C 174.945312 185.480469 186.902344 189.625 185.683594 201.097656 C 185.683594 201.097656 209.109375 186.457031 207.15625 169.128906 C 207.15625 169.128906 257.832031 268.632812 179.09375 265.03125 " fill-opacity="1" fill-rule="nonzero"/><path fill="#ffffff" d="M 179.09375 265.03125 C 169.007812 264.570312 149.808594 262.347656 149.808594 237.214844 C 149.808594 212.078125 174.945312 208.660156 174.945312 185.480469 C 174.945312 185.480469 186.902344 189.625 185.683594 201.097656 C 185.683594 201.097656 209.109375 186.457031 207.15625 169.128906 C 207.15625 169.128906 257.832031 268.632812 179.09375 265.03125 " fill-opacity="1" fill-rule="nonzero"/><path fill="#a6a6a6" d="M 183.972656 221.738281 C 183.972656 221.738281 190.074219 239.625 180.070312 239.625 C 173.113281 239.625 173.96875 232.0625 173.96875 232.0625 C 173.96875 232.0625 154.566406 263.542969 183.972656 263.542969 C 189.929688 263.542969 200.324219 262.320312 200.324219 246.214844 C 200.324219 230.109375 191.292969 223.617188 183.972656 221.738281 " fill-opacity="1" fill-rule="nonzero"/></svg>

<svg xmlns="http://www.w3.org/2000/svg" viewBox="0 0 64 64"><defs><clipPath id="a"><path d="M126.145 115.2H240V267H126.145Zm0 0"/></clipPath></defs><g clip-path="url(#a)"><path fill="#545454" d="M183.73 266.652c-15.605 0-54.175-2.437-57.59-46.851 0 0 9.989 17.695 10.005 15.617.046-6.758-10.004-31.48 15.128-48.316 30.758-20.606 21.477-45.88 14.153-46.368 0 0 19.683-1.992 21.476 24.11.977 14.203 12.934-26.793 5.86-49.489 0 0 35.93 19.036 31.476 65.887 0 0 5.551-10.613 14.887-4.941 0 0-5.86 2.015-3.902 17.633 1.949 15.617 10.488 72.718-51.493 72.718"/></g><path fill="#fff" d="M179.094 265.031c-10.086-.46-29.285-2.683-29.285-27.816 0-25.137 25.136-28.555 25.136-51.735 0 0 11.957 4.145 10.739 15.618 0 0 23.425-14.641 21.472-31.97 0 0 50.676 99.505-28.062 95.903"/><path fill="#fff" d="M179.094 265.031c-10.086-.46-29.285-2.683-29.285-27.816 0-25.137 25.136-28.555 25.136-51.735 0 0 11.957 4.145 10.739 15.618 0 0 23.425-14.641 21.472-31.97 0 0 50.676 99.505-28.062 95.903"/><path fill="#a6a6a6" d="M183.973 221.738s6.101 17.887-3.903 17.887c-6.957 0-6.101-7.562-6.101-7.562s-19.403 31.48 10.004 31.48c5.957 0 16.351-1.223 16.351-17.328 0-16.106-9.031-22.598-16.351-24.477"/></svg>
